package/converter/svg/light/calendar-minus.svg

<svg xmlns="http://www.w3.org/2000/svg" viewBox="0 0 448 512"><!-- Font Awesome Pro 6.0.0-alpha2 by @fontawesome - https://fontawesome.com License - https://fontawesome.com/license (Commercial License) --><path d="M384 64H352V16C352 7.164 344.836 0 336 0S320 7.164 320 16V64H128V16C128 7.164 120.836 0 112 0S96 7.164 96 16V64H64C28.654 64 0 92.654 0 128V448C0 483.346 28.654 512 64 512H384C419.346 512 448 483.346 448 448V128C448 92.654 419.346 64 384 64ZM416 448C416 465.674 401.674 480 384 480H64C46.326 480 32 465.674 32 448V192H416V448ZM416 160H32V128C32 110.326 46.326 96 64 96H384C401.674 96 416 110.326 416 128V160ZM143.998 351.998H304.002C312.84 351.998 320 344.838 320 336S312.84 320.002 304.002 320.002H143.998C135.16 320.002 128 327.162 128 336C128 344.834 135.154 351.998 143.998 351.998Z"/></svg>

<svg xmlns="http://www.w3.org/2000/svg" viewBox="0 0 448 512"><!--! Font Awesome Pro 6.6.0 by @fontawesome - https://fontawesome.com License - https://fontawesome.com/license (Commercial License) Copyright 2024 Fonticons, Inc. --><path d="M128 16c0-8.8-7.2-16-16-16s-16 7.2-16 16l0 48L64 64C28.7 64 0 92.7 0 128l0 32 0 32L0 448c0 35.3 28.7 64 64 64l320 0c35.3 0 64-28.7 64-64l0-256 0-32 0-32c0-35.3-28.7-64-64-64l-32 0 0-48c0-8.8-7.2-16-16-16s-16 7.2-16 16l0 48L128 64l0-48zM32 192l384 0 0 256c0 17.7-14.3 32-32 32L64 480c-17.7 0-32-14.3-32-32l0-256zM64 96l320 0c17.7 0 32 14.3 32 32l0 32L32 160l0-32c0-17.7 14.3-32 32-32zM304 352c8.8 0 16-7.2 16-16s-7.2-16-16-16l-160 0c-8.8 0-16 7.2-16 16s7.2 16 16 16l160 0z"/></svg>
